images/logos/xbav.svg

<svg height="48" viewBox="0 0 88 48" width="88" xmlns="http://www.w3.org/2000/svg"><path d="m150.687452 16h5.32681l-11.986566 35.8474013h-5.820357l-7.596103-23.4787337h5.294542l5.228157 16.5072408h.066101zm-29.305345 12.3686676h5.293973l8.779649 23.4787337h-5.359505l-1.775745-5.2285841h-8.780076l-1.841419 5.2285841h-5.195463zm-20.888465.0001422v8.5495069h.065958c.569881-.8765007 1.342328-1.5177422 2.318192-1.9238665.975295-.4049871 1.98954-.6081204 3.041597-.6081204.85532 0 1.698984.1756982 2.532271.5265259.833003.3506856 1.5837.8873042 2.252661 1.6107087.66825.7235467 1.211123 1.649658 1.627767 2.7789025.416074 1.1291024.624467 2.4718571.624467 4.0281221 0 1.5566915-.208393 2.8995884-.624467 4.0284065-.416644 1.1293866-.959517 2.0547872-1.627767 2.778476-.668961.7235467-1.419658 1.260876-2.252661 1.6114194-.833287.3502592-1.676951.525673-2.532271.525673-1.249362 0-2.367377-.1970207-3.353902-.5913466-.986525-.3948944-1.732105-1.0632866-2.236029-2.0063138h-.065958v2.17064h-4.4389376v-23.4787337zm23.453573 5.7873782-3.058655 8.6157491h6.083762l-2.959434-8.6157491zm-19.638819 14.6329849c.701087 0 1.298972-.1479788 1.792093-.4439364.492978-.2958155.90422-.695543 1.233014-1.2001777.329079-.503924.569882-1.0850357.723689-1.7426245.152812-.6580152.23-1.3369266.23-2.0390085 0-.7234045-.077188-1.41383-.23-2.0711345-.153807-.6580152-.39461-1.2388427-.723689-1.7433352-.328794-.5042083-.740036-.904078-1.233014-1.2001777-.493121-.2962419-1.091006-.4439364-1.792093-.4439364-.679907 0-1.271538.1476945-1.775746.4439364-.504634.2960997-.920567.6959694-1.249504 1.2001777-.329078.5044925-.57045 1.08532-.723546 1.7433352-.153807.6573045-.230142 1.34773-.230142 2.0711345 0 .7020819.076335 1.3809933.230142 2.0390085.153096.6575888.394468 1.2387005.723546 1.7426245.328937.5046347.74487.9043622 1.249504 1.2001777.504208.2959576 1.095839.4439364 1.775746.4439364zm-16.1254245-15.4614387h5.6115379l-6.0762282 8.6497231 6.8269257 9.8290046h-5.7902213l-3.8602422-5.8261853-11.2118459 18.0197234h-5.6828975l13.999846-21.9156455-6.0760861-8.7566203h5.7897948l3.2528326 4.8251606z" fill-rule="evenodd" transform="translate(-68 -16)"/></svg>

<?xml version="1.0" encoding="UTF-8"?>
<svg width="88px" height="48px" viewBox="0 0 88 48" version="1.1" xmlns="http://www.w3.org/2000/svg" xmlns:xlink="http://www.w3.org/1999/xlink">
    <!-- Generator: Sketch 50.2 (55047) - http://www.bohemiancoding.com/sketch -->
    <title>xbav</title>
    <desc>Created with Sketch.</desc>
    <defs></defs>
    <g id="Desktop" stroke="none" stroke-width="1" fill="none" fill-rule="evenodd">
        <g id="Work" transform="translate(-532.000000, -2416.000000)" fill="#000000">
            <g id="Clients" transform="translate(80.000000, 1824.000000)">
                <g id="logos" transform="translate(128.000000, 448.000000)">
                    <g id="6" transform="translate(256.000000, 128.000000)">
                        <path d="M150.687452,16 L156.014262,16 L144.027696,51.8474013 L138.207339,51.8474013 L130.611236,28.3686676 L135.905778,28.3686676 L141.133935,44.8759084 L141.200036,44.8759084 L150.687452,16 Z M121.382107,28.3686676 L126.67608,28.3686676 L135.455729,51.8474013 L130.096224,51.8474013 L128.320479,46.6188172 L119.540403,46.6188172 L117.698984,51.8474013 L112.503521,51.8474013 L121.382107,28.3686676 Z M100.493642,28.3688098 L100.493642,36.9183167 L100.5596,36.9183167 C101.129481,36.041816 101.901928,35.4005745 102.877792,34.9944502 C103.853087,34.5894631 104.867332,34.3863298 105.919389,34.3863298 C106.774709,34.3863298 107.618373,34.562028 108.45166,34.9128557 C109.284663,35.2635413 110.03536,35.8001599 110.704321,36.5235644 C111.372571,37.2471111 111.915444,38.1732224 112.332088,39.3024669 C112.748162,40.4315693 112.956555,41.774324 112.956555,43.330589 C112.956555,44.8872805 112.748162,46.2301774 112.332088,47.3589955 C111.915444,48.4883821 111.372571,49.4137827 110.704321,50.1374715 C110.03536,50.8610182 109.284663,51.3983475 108.45166,51.7488909 C107.618373,52.0991501 106.774709,52.2745639 105.919389,52.2745639 C104.670027,52.2745639 103.552012,52.0775432 102.565487,51.6832173 C101.578962,51.2883229 100.833382,50.6199307 100.329458,49.6769035 L100.2635,49.6769035 L100.2635,51.8475435 L95.8245624,51.8475435 L95.8245624,28.3688098 L100.493642,28.3688098 Z M123.947215,34.156188 L120.88856,42.7719371 L126.972322,42.7719371 L124.012888,34.156188 L123.947215,34.156188 Z M104.308396,48.7891729 C105.009483,48.7891729 105.607368,48.6411941 106.100489,48.3452365 C106.593467,48.049421 107.004709,47.6496935 107.333503,47.1450588 C107.662582,46.6411348 107.903385,46.0600231 108.057192,45.4024343 C108.210004,44.7444191 108.287192,44.0655077 108.287192,43.3634258 C108.287192,42.6400213 108.210004,41.9495958 108.057192,41.2922913 C107.903385,40.6342761 107.662582,40.0534486 107.333503,39.5489561 C107.004709,39.0447478 106.593467,38.6448781 106.100489,38.3487784 C105.607368,38.0525365 105.009483,37.904842 104.308396,37.904842 C103.628489,37.904842 103.036858,38.0525365 102.53265,38.3487784 C102.028016,38.6448781 101.612083,39.0447478 101.283146,39.5489561 C100.954068,40.0534486 100.712696,40.6342761 100.5596,41.2922913 C100.405793,41.9495958 100.329458,42.6400213 100.329458,43.3634258 C100.329458,44.0655077 100.405793,44.7444191 100.5596,45.4024343 C100.712696,46.0600231 100.954068,46.6411348 101.283146,47.1450588 C101.612083,47.6496935 102.028016,48.049421 102.53265,48.3452365 C103.036858,48.6411941 103.628489,48.7891729 104.308396,48.7891729 Z M88.1829715,33.3277342 L93.7945094,33.3277342 L87.7182812,41.9774573 L94.5452069,51.8064619 L88.7549856,51.8064619 L84.8947434,45.9802766 L73.6828975,64 L68,64 L81.999846,42.0843545 L75.9237599,33.3277342 L81.7135547,33.3277342 L84.9663873,38.1528948 L88.1829715,33.3277342 Z" id="xbav"></path>
                    </g>
                </g>
            </g>
        </g>
    </g>
</svg>
